X:1
T:Title
%%score { ( 1 3 4 ) | ( 2 5 ) }
L:1/8
M:3/4
K:Ab
V:1 treble nm="Grand Piano"
V:3 treble 
V:4 treble 
V:2 bass 
V:5 bass 
V:1
 z2 z2[Q:1/4=100] [CE]2 | [CE]2 [DF]2 [DG]2 | [CA]2 [Ec]2 [EB]2 | [FA]2 [EG]2 [DF]2 | [CE]4 [Ec]2 | %5
 [Ec]2 z2 z =A |[M:2/4] B4 |[M:1/4] [Gd]2 |[M:3/4] d2 c3 _c | c4 [CE]2 | [CE]2 [DF]2 [DG]2 | %11
 [CA]2 [Ec]2 [EB]2 | [FA]2 [EG]2 [DF]2 |[M:2/4] [CE]4 |[M:1/4] e2 |[M:3/4] e2 c2 A2 | G3 A B2 | %17
 [CEA]6- |[M:2/4] [CEA]4 |[M:1/4] [C_GA]2 |[M:3/4] [DFA]3 [Fd] [Fd]2 | [Fd]2 [FA]2 [DF]2 | %22
 [CE]4 [CA]2 | [Ec]4 [Ec]2 | [CAc]3 [CGB] [CFA]2 | [=DFA]2 [DFB]2 [DFc]2 | B6- | B4 z2 | c3 d c2 | %29
 [Ec]2 [EB]2 [EA]2 | [FA]2 [EG]2 [DF]2 | [CE]4 e2 | e2 c2 A2 | G3 A B2 | A6- |[M:2/4] A4 |] %36
V:2
 z2 z2 [A,,A,]2 | [A,,A,]2 [A,,A,]2 [A,,A,]2 | [A,,A,]2 [A,,A,]2 [C,A,]2 | %3
 [D,A,]2 [D,A,]2 [D,A,]2 | [A,,A,]4 [A,,A,]2 | [E,A,]2 [E,G,]2 z E |[M:2/4] [E,G,E]4 | %7
[M:1/4] [E,B,]2 |[M:3/4][K:treble] [A,F]2 [A,E]3[K:bass] [A,=D] | [A,E]4 [A,,A,]2 | %10
 [A,,A,]2 [A,,A,]2 [A,,A,]2 | [A,,A,]2 [A,,A,]2 [C,A,]2 | [D,A,]2 [D,A,]2 [D,A,]2 | %13
[M:2/4] [A,,A,]4 |[M:1/4] [A,CE]2 |[M:3/4] [E,CE]2 [E,A,E]2 [E,CE]2 | [E,B,E]3 [E,CE] [E,DE]2 | %17
 A,,6- |[M:2/4] A,,4 |[M:1/4] A,,2 |[M:3/4] D,3 [D,A,] [D,A,]2 | [D,A,]2 [D,D]2 [D,A,]2 | %22
 [A,,A,]3 [A,,A,] [A,,A,]2 | [A,,A,]4 A,2 | F,3 F, F,2 | B,,2 B,,2 B,,2 | E,3 [E,B,] [E,A,]2 | %27
 [E,G,]4 [E,G,E]2 | [A,E]3 [A,F][K:bass] [A,E]2 | [A,,A,]2 [B,,G,]2 [C,A,]2 | %30
 [D,A,]2 [D,A,]2 [D,A,]2 | [A,,A,]4 [A,CE]2 | [E,CE]2 [E,A,E]2 [E,CE]2 | %33
 [E,B,D]3 [E,A,C] [E,G,D]2 | [A,,A,]3 [A,,G,] [A,,F,]2 |[M:2/4] [A,,E,]4 |] %36
V:3
 x6 | x6 | x6 | x6 | x6 | z2 [EB]4 |[M:2/4] x4 |[M:1/4] x2 |[M:3/4] x6 | x6 | x6 | x6 | x6 | %13
[M:2/4] x4 |[M:1/4] x2 |[M:3/4] x6 | x6 | x6 |[M:2/4] x4 |[M:1/4] x2 |[M:3/4] x6 | x6 | x6 | x6 | %24
 x6 | x6 | [EG]3 G F2 | E4 B2 | x6 | x6 | x6 | x6 | x6 | x6 | C3 E D2 |[M:2/4] C4 |] %36
V:4
 x6 | x6 | x6 | x6 | x6 | z2 z2 _G,2 |[M:2/4] x4 |[M:1/4] x2 |[M:3/4] x6 | x6 | x6 | x6 | x6 | %13
[M:2/4] x4 |[M:1/4] x2 |[M:3/4] x6 | x6 | x6 |[M:2/4] x4 |[M:1/4] x2 |[M:3/4] x6 | x6 | x6 | x6 | %24
 x6 | x6 | x6 | x6 | x6 | x6 | x6 | x6 | x6 | x6 | x6 |[M:2/4] x4 |] %36
V:5
 x6 | x6 | x6 | x6 | x6 | z2 z2 E,2 |[M:2/4] x4 |[M:1/4] x2 |[M:3/4][K:treble] x5[K:bass] x | x6 | %10
 x6 | x6 | x6 |[M:2/4] x4 |[M:1/4] x2 |[M:3/4] x6 | x6 | x6 |[M:2/4] x4 |[M:1/4] x2 |[M:3/4] x6 | %21
 x6 | x6 | x6 | x6 | x6 | x6 | x6 | x4[K:bass] x2 | x6 | x6 | x6 | x6 | x6 | x6 |[M:2/4] x4 |] %36

